pro/src/icons/stroke-draft.svg

<svg width="48" height="48" viewBox="0 0 48 48" fill="none" xmlns="http://www.w3.org/2000/svg">
<path id="icon" fill-rule="evenodd" clip-rule="evenodd" d="M8 6C8 4.89228 8.89228 4 10 4H38C39.1077 4 40 4.89228 40 6V9.09C40 9.64228 40.4477 10.09 41 10.09C41.5523 10.09 42 9.64228 42 9.09V6C42 3.78772 40.2123 2 38 2H10C7.78772 2 6 3.78772 6 6V42C6 44.2123 7.78772 46 10 46H38C40.2123 46 42 44.2123 42 42V27.96C42 27.4077 41.5523 26.96 41 26.96C40.4477 26.96 40 27.4077 40 27.96V42C40 43.1077 39.1077 44 38 44H10C8.89228 44 8 43.1077 8 42V6ZM16.735 27.3382C16.7275 27.3457 16.7201 27.3532 16.7129 27.3608C16.5449 27.4877 16.4184 27.6664 16.3566 27.8748L14.0413 35.6839C13.9368 36.0362 14.034 36.4175 14.2943 36.6768C14.5546 36.9362 14.9362 37.0317 15.2879 36.9257L23.0451 34.588C23.2311 34.5319 23.3933 34.4241 23.5157 34.2813C23.5474 34.2547 23.5784 34.2264 23.6083 34.1964L41.6096 16.1555C42.0708 15.6933 42.1278 15.0024 41.7368 14.6123L36.2793 9.16668C35.8883 8.77659 35.1975 8.83505 34.7363 9.29727L16.735 27.3382ZM16.9389 32.9439L17.7928 30.0638L18.6475 30.9166L20.8727 33.1539L18.0069 34.0176L16.9389 32.9439ZM23.0276 31.9468L18.9858 27.9139L35.317 11.5469L39.3588 15.5798L23.0276 31.9468Z" fill="currentColor"/>
</svg>

<svg xmlns="http://www.w3.org/2000/svg" width="48" height="48" fill="none"><path id="icon" fill="currentColor" fill-rule="evenodd" d="M8 6c0-1.108.892-2 2-2h28c1.108 0 2 .892 2 2v3.09a1 1 0 1 0 2 0V6c0-2.212-1.788-4-4-4H10C7.788 2 6 3.788 6 6v36c0 2.212 1.788 4 4 4h28c2.212 0 4-1.788 4-4V27.96a1 1 0 1 0-2 0V42c0 1.108-.892 2-2 2H10c-1.108 0-2-.892-2-2zm8.735 21.338-.022.023a1 1 0 0 0-.356.514l-2.316 7.809a1 1 0 0 0 1.247 1.242l7.757-2.338a1 1 0 0 0 .47-.307q.048-.04.093-.085l18.002-18.04c.46-.463.518-1.154.127-1.544l-5.458-5.445c-.39-.39-1.082-.332-1.543.13zm.204 5.606.854-2.88.855.853 2.225 2.237-2.866.864zm6.089-.997-4.042-4.033 16.331-16.367 4.042 4.033z" clip-rule="evenodd"/></svg>
